public/images/icons/funnel.svg

<svg fill="none" height="99" viewBox="0 0 67 99" width="67" xmlns="http://www.w3.org/2000/svg" xmlns:xlink="http://www.w3.org/1999/xlink"><linearGradient id="a"><stop offset="0" stop-color="#ffe7e0"/><stop offset=".34375" stop-color="#f8dbf4"/><stop offset=".6875" stop-color="#c4ddff"/><stop offset="1" stop-color="#cae9ff"/></linearGradient><linearGradient id="b" gradientUnits="userSpaceOnUse" x1="7.36841" x2="14.107" xlink:href="#a" y1="17.2105" y2="13.8435"/><linearGradient id="c" gradientUnits="userSpaceOnUse" x1="43.1579" x2="49.8965" xlink:href="#a" y1="8.21053" y2="4.84346"/><linearGradient id="d" gradientUnits="userSpaceOnUse" x1="31.5789" x2="38.3176" xlink:href="#a" y1="25.2105" y2="21.8435"/><linearGradient id="e" gradientUnits="userSpaceOnUse" x1="23.158" x2="29.8966" xlink:href="#a" y1="4.21053" y2=".843455"/><linearGradient id="f" gradientUnits="userSpaceOnUse" x1="11.579" x2="18.3176" xlink:href="#a" y1="34.6846" y2="31.3176"/><linearGradient id="g" gradientUnits="userSpaceOnUse" x1=".000002" x2="51.9347" xlink:href="#a" y1="67.4208" y2="40.235"/><circle cx="11.5789" cy="17.2105" fill="url(#b)" r="4.21053"/><circle cx="47.3684" cy="8.21053" fill="url(#c)" r="4.21053"/><circle cx="35.7894" cy="25.2105" fill="url(#d)" r="4.21053"/><circle cx="27.3685" cy="4.21053" fill="url(#e)" r="4.21053"/><circle cx="15.7895" cy="34.6846" fill="url(#f)" r="4.21053"/><path clip-rule="evenodd" d="m0 35.8418v6.015h3.00752l15.03758 24.9237v23.1966h7.7831c-.7699-1.8977-1.5064-3.9127-1.7681-6.015v-18.9086l-13.9567-23.1967h33.9344l-13.9626 23.1967v.0235c2.9955-3.4015 6.9292-5.9468 11.4074-7.231l9.6452-15.9892h3.0075v-6.015h-3.0075-48.12028zm48.1203 27.0677c-9.9304 0-18.0451 8.1147-18.0451 18.0451s8.1147 18.0451 18.0451 18.0451 18.0451-8.1147 18.0451-18.0451-8.1147-18.0451-18.0451-18.0451zm11.8623 9.8094c-.2225-1.6064-5.2233-.6639-6.5603-.4119-.1066.0201-.1898.0358-.2456.0455-.0387.0066-.0749-.0267-.067-.0656.0768-.3886.1324-1.4394-.6048-1.6669-.4712-.1455-.7821.1231-.9665.394-.0825.1215-.3297.647-.4832 1.0118-.0828.197-.2755.4848-.4873.4796-.8884-.2792-1.7807-.4188-2.6731-.4188-.8922 0-1.7847.1396-2.6731.4188-.2117.0052-.4045-.2826-.4874-.4796-.1535-.3648-.4005-.8903-.4831-1.0118-.1844-.2709-.4951-.5395-.9665-.394-.7372.2275-.6817 1.2783-.6047 1.6669.0077.0389-.0284.0722-.0672.0656-.0556-.0097-.1387-.0254-.2451-.0454-1.3362-.2519-6.3381-1.1947-6.5609.4118-.228 1.6451 1.8326 3.9138 3.9888 4.9334.1138.0539.2149.128.3161.2022.0838.0615.1678.1231.2591.1733.3394.1864.5418.6518.4921 1.0716v5.8778c1.7002-1.2076 4.1994-1.959 7.0319-1.959 2.8326 0 5.3318.7515 7.032 1.959v-5.8778c-.0498-.4198.1525-.8852.4919-1.0716.0916-.0503.1757-.1119.2596-.1735l.0001-.0001c.101-.0741.2019-.1481.3156-.2019 2.1561-1.0196 4.217-3.2883 3.9886-4.9334zm-14.1015 5.0573c.7397.5121.9765.8895.952 1.0383-.0274.1481-.3777.4208-1.2463.6468-.6082.1544-1.241.212-1.867.173-.1471-.0093-.2946-.0341-.4311-.0903-.249-.1022-.4596-.2782-.6161-.5101-.2115-.3028-.3122-.64-.2477-1.0044.0629-.3649.2716-.6469.5729-.8582.2257-.164.4832-.2566.7519-.2667.1472-.0054.2943.022.4355.0642.6016.1794 1.1767.4522 1.6959.8074zm7.236 1.2577c-.1565.2319-.3671.4078-.6161.5101-.1366.0562-.2841.081-.4312.0903-.626.039-1.2589-.0186-1.8669-.173-.8687-.226-1.219-.4988-1.2464-.647-.0244-.1488.2123-.526.952-1.0382.5192-.3551 1.0944-.6279 1.6959-.8073.1413-.0422.2884-.0696.4356-.0642.2687.0101.5262.1027.7518.2667.3013.2113.5102.4934.573.8583.0645.3644-.0362.7015-.2477 1.0043zm-5.2223 4.9622c-4.6267 0-8.3773 2.1805-8.3773 4.8704 0 2.69 3.7506 4.8705 8.3773 4.8705 4.6268 0 8.3775-2.1806 8.3775-4.8705s-3.7508-4.8704-8.3775-4.8704zm-3.9651 5.3682c-.7168.3532-1.3843 0-1.5124-.8009-.1402-.858 1.005-2.8973 1.2685-1.3553.1507.8822.5991.5539.9565.2921.2673-.1958.4838-.3543.4869.0586-.0394.7791-.5002 1.4732-1.1995 1.8055zm9.4425-.8009c-.1282.8009-.7957 1.1541-1.5124.8009-.6993-.3323-1.1603-1.0264-1.1993-1.8055.003-.4128.2194-.2544.4866-.0586.3574.2617.8058.5901.9566-.2921.2635-1.542 1.4086.4973 1.2685 1.3553z" fill="url(#g)" fill-rule="evenodd"/></svg>

<svg width="67" height="99" viewBox="0 0 67 99" fill="none" xmlns="http://www.w3.org/2000/svg">
<circle cx="11.5789" cy="17.2105" r="4.21053" fill="url(#paint0_linear_13_232)"/>
<circle cx="47.3684" cy="8.21053" r="4.21053" fill="url(#paint1_linear_13_232)"/>
<circle cx="35.7894" cy="25.2105" r="4.21053" fill="url(#paint2_linear_13_232)"/>
<circle cx="27.3685" cy="4.21053" r="4.21053" fill="url(#paint3_linear_13_232)"/>
<circle cx="15.7895" cy="34.6846" r="4.21053" fill="url(#paint4_linear_13_232)"/>
<path fill-rule="evenodd" clip-rule="evenodd" d="M0 35.8418V41.8568H3.00752L18.0451 66.7805V89.9771H25.8282C25.0583 88.0794 24.3218 86.0644 24.0601 83.9621V65.0535L10.1034 41.8568H44.0378L30.0752 65.0535V65.077C33.0707 61.6755 37.0044 59.1302 41.4826 57.846L51.1278 41.8568H54.1353V35.8418H51.1278H3.00752H0ZM48.1203 62.9095C38.1899 62.9095 30.0752 71.0242 30.0752 80.9546C30.0752 90.885 38.1899 98.9997 48.1203 98.9997C58.0507 98.9997 66.1654 90.885 66.1654 80.9546C66.1654 71.0242 58.0507 62.9095 48.1203 62.9095ZM59.9826 72.7189C59.7601 71.1125 54.7593 72.055 53.4223 72.307C53.3157 72.3271 53.2325 72.3428 53.1767 72.3525C53.138 72.3591 53.1018 72.3258 53.1097 72.2869C53.1865 71.8983 53.2421 70.8475 52.5049 70.62C52.0337 70.4745 51.7228 70.7431 51.5384 71.014C51.4559 71.1355 51.2087 71.661 51.0552 72.0258C50.9724 72.2228 50.7797 72.5106 50.5679 72.5054C49.6795 72.2262 48.7872 72.0866 47.8948 72.0866C47.0026 72.0866 46.1101 72.2262 45.2217 72.5054C45.01 72.5106 44.8172 72.2228 44.7343 72.0258C44.5808 71.661 44.3338 71.1355 44.2512 71.014C44.0668 70.7431 43.7561 70.4745 43.2847 70.62C42.5475 70.8475 42.603 71.8983 42.68 72.2869C42.6877 72.3258 42.6516 72.3591 42.6128 72.3525C42.5572 72.3428 42.4741 72.3271 42.3677 72.3071C41.0315 72.0552 36.0296 71.1124 35.8068 72.7189C35.5788 74.364 37.6394 76.6327 39.7956 77.6523C39.9094 77.7062 40.0105 77.7803 40.1117 77.8545C40.1955 77.916 40.2795 77.9776 40.3708 78.0278C40.7102 78.2142 40.9126 78.6796 40.8629 79.0994V84.9772C42.5631 83.7696 45.0623 83.0182 47.8948 83.0182C50.7274 83.0182 53.2266 83.7697 54.9268 84.9772V79.0994C54.877 78.6796 55.0793 78.2142 55.4187 78.0278C55.5103 77.9775 55.5944 77.9159 55.6783 77.8543L55.6784 77.8542C55.7794 77.7801 55.8803 77.7061 55.994 77.6523C58.1501 76.6327 60.211 74.364 59.9826 72.7189ZM45.8811 77.7762C46.6208 78.2883 46.8576 78.6657 46.8331 78.8145C46.8057 78.9626 46.4554 79.2353 45.5868 79.4613C44.9786 79.6157 44.3458 79.6733 43.7198 79.6343C43.5727 79.625 43.4252 79.6002 43.2887 79.544C43.0397 79.4418 42.8291 79.2658 42.6726 79.0339C42.4611 78.7311 42.3604 78.3939 42.4249 78.0295C42.4878 77.6646 42.6965 77.3826 42.9978 77.1713C43.2235 77.0073 43.481 76.9147 43.7497 76.9046C43.8969 76.8992 44.044 76.9266 44.1852 76.9688C44.7868 77.1482 45.3619 77.421 45.8811 77.7762ZM53.1171 79.0339C52.9606 79.2658 52.75 79.4417 52.501 79.544C52.3644 79.6002 52.2169 79.625 52.0698 79.6343C51.4438 79.6733 50.8109 79.6157 50.2029 79.4613C49.3342 79.2353 48.9839 78.9625 48.9565 78.8143C48.9321 78.6655 49.1688 78.2883 49.9085 77.7761C50.4277 77.421 51.0029 77.1482 51.6044 76.9688C51.7457 76.9266 51.8928 76.8992 52.04 76.9046C52.3087 76.9147 52.5662 77.0073 52.7918 77.1713C53.0931 77.3826 53.302 77.6647 53.3648 78.0296C53.4293 78.394 53.3286 78.7311 53.1171 79.0339ZM47.8948 83.9961C43.2681 83.9961 39.5175 86.1766 39.5175 88.8665C39.5175 91.5565 43.2681 93.737 47.8948 93.737C52.5216 93.737 56.2723 91.5564 56.2723 88.8665C56.2723 86.1766 52.5215 83.9961 47.8948 83.9961ZM43.9297 89.3643C43.2129 89.7175 42.5454 89.3643 42.4173 88.5634C42.2771 87.7054 43.4223 85.6661 43.6858 87.2081C43.8365 88.0903 44.2849 87.762 44.6423 87.5002C44.9096 87.3044 45.1261 87.1459 45.1292 87.5588C45.0898 88.3379 44.629 89.032 43.9297 89.3643ZM53.3722 88.5634C53.244 89.3643 52.5765 89.7175 51.8598 89.3643C51.1605 89.032 50.6995 88.3379 50.6605 87.5588C50.6635 87.146 50.8799 87.3044 51.1471 87.5002C51.5045 87.7619 51.9529 88.0903 52.1037 87.2081C52.3672 85.6661 53.5123 87.7054 53.3722 88.5634Z" fill="url(#paint5_linear_13_232)"/>
<defs>
<linearGradient id="paint0_linear_13_232" x1="7.36841" y1="17.2105" x2="14.107" y2="13.8435" gradientUnits="userSpaceOnUse">
<stop stop-color="#FFE7E0"/>
<stop offset="0.34375" stop-color="#F8DBF4"/>
<stop offset="0.6875" stop-color="#C4DDFF"/>
<stop offset="1" stop-color="#CAE9FF"/>
</linearGradient>
<linearGradient id="paint1_linear_13_232" x1="43.1579" y1="8.21053" x2="49.8965" y2="4.84346" gradientUnits="userSpaceOnUse">
<stop stop-color="#FFE7E0"/>
<stop offset="0.34375" stop-color="#F8DBF4"/>
<stop offset="0.6875" stop-color="#C4DDFF"/>
<stop offset="1" stop-color="#CAE9FF"/>
</linearGradient>
<linearGradient id="paint2_linear_13_232" x1="31.5789" y1="25.2105" x2="38.3176" y2="21.8435" gradientUnits="userSpaceOnUse">
<stop stop-color="#FFE7E0"/>
<stop offset="0.34375" stop-color="#F8DBF4"/>
<stop offset="0.6875" stop-color="#C4DDFF"/>
<stop offset="1" stop-color="#CAE9FF"/>
</linearGradient>
<linearGradient id="paint3_linear_13_232" x1="23.158" y1="4.21053" x2="29.8966" y2="0.843455" gradientUnits="userSpaceOnUse">
<stop stop-color="#FFE7E0"/>
<stop offset="0.34375" stop-color="#F8DBF4"/>
<stop offset="0.6875" stop-color="#C4DDFF"/>
<stop offset="1" stop-color="#CAE9FF"/>
</linearGradient>
<linearGradient id="paint4_linear_13_232" x1="11.579" y1="34.6846" x2="18.3176" y2="31.3176" gradientUnits="userSpaceOnUse">
<stop stop-color="#FFE7E0"/>
<stop offset="0.34375" stop-color="#F8DBF4"/>
<stop offset="0.6875" stop-color="#C4DDFF"/>
<stop offset="1" stop-color="#CAE9FF"/>
</linearGradient>
<linearGradient id="paint5_linear_13_232" x1="1.97057e-06" y1="67.4208" x2="51.9347" y2="40.235" gradientUnits="userSpaceOnUse">
<stop stop-color="#FFE7E0"/>
<stop offset="0.34375" stop-color="#F8DBF4"/>
<stop offset="0.6875" stop-color="#C4DDFF"/>
<stop offset="1" stop-color="#CAE9FF"/>
</linearGradient>
</defs>
</svg>
